X:8
%%titlespace -20
%%musicspace -10
T:Morpeth Rant
M:4/4
L:1/8
K:D
(3ABc | "D"d2 AG FDFA | "G"BGBd "A"cAce | "D"f2 fd gfed | "A"c2 e2 e2 A2 |
"D"d2 AG FDFA | "G"BGBd "A"cAce | "D"f2 fd "G"gfed | "D"A2 d2 d2 :|]
[|: A2 | "D"dfaf dfaf | "Em"gfef g2 ef | "A7"gfed cdeg | "D"fefg f2 f2 | 
"Bm"dfaf dfaf | "Em"gfef g2 ef | "A7"gfed cdeg | "D"f2 d2 d2 :|]

